X: 1
T: Conlan's Well
R: reel
M: 4/4
L: 1/8
K: Dmaj
|:E||FEDF Adfd|eB~B2 dBAF|DEFA BFAF|~E2DF EFGE|
FEDF Adfd|eB~B2 dBAB|defa bfaf|~e2ce fdd:|
|:e||faaf defa|~a2fd efdB|BAFB ABdf|
[1 eB~B2 efge|faaf defa|bgaf ~g2fe|dcdB ABdf|~e2de fdd:|
[2 eB~B2 edBA|FEDF Adfd|eB~B2 dBAB|defa bfaf|~e2de fdd||

composer: Paddy O'Brien
